public/img/icons/holes.svg

<svg width="64" height="64" viewBox="0 0 64 64" fill="none" xmlns="http://www.w3.org/2000/svg">
<g clip-path="url(#clip0_150_2)">
<path d="M32.0054 0.00427246C14.3292 0.00427246 0 14.3291 0 32.001C0 49.6773 14.3292 63.9978 32.0054 63.9978C49.6773 63.9978 64.0022 49.6751 64.0022 32.001C64.0022 14.3291 49.6773 0.00427246 32.0054 0.00427246ZM9.20761 30.6884C8.24088 30.6884 7.45675 29.9043 7.45675 28.9376C7.45675 27.9687 8.24088 27.1803 9.20761 27.1803C10.1786 27.1803 10.9628 27.9687 10.9628 28.9376C10.9628 29.9043 10.1786 30.6884 9.20761 30.6884ZM18.8513 32.4414C17.8846 32.4414 17.1005 31.653 17.1005 30.6863C17.1005 29.7196 17.8846 28.9354 18.8513 28.9354C19.8224 28.9354 20.6086 29.7196 20.6086 30.6863C20.6086 31.653 19.8224 32.4414 18.8513 32.4414ZM25.8677 48.659C23.9321 48.659 22.3574 47.0907 22.3574 45.1508C22.3574 43.213 23.9321 41.6469 25.8677 41.6469C27.8033 41.6469 29.378 43.2152 29.378 45.1508C29.378 47.0886 27.8011 48.659 25.8677 48.659ZM25.8677 15.7857C23.9321 15.7857 22.3574 14.2174 22.3574 12.2818C22.3574 10.3397 23.9321 8.76719 25.8677 8.76719C27.8033 8.76719 29.378 10.3397 29.378 12.2818C29.378 14.2153 27.8011 15.7857 25.8677 15.7857ZM51.5098 17.9748C52.3584 17.9748 53.0415 18.6644 53.0415 19.5108C53.0415 20.3551 52.3584 21.0469 51.5098 21.0469C50.6634 21.0469 49.9759 20.3551 49.9759 19.5108C49.9759 18.6644 50.6634 17.9748 51.5098 17.9748ZM33.7584 30.6884C32.7895 30.6884 32.0054 29.9043 32.0054 28.9376C32.0054 27.9687 32.7895 27.1803 33.7584 27.1803C34.723 27.1803 35.5114 27.9687 35.5114 28.9376C35.5114 29.9043 34.723 30.6884 33.7584 30.6884ZM38.5813 10.7415C38.5813 9.65229 39.4664 8.76933 40.5513 8.76933C41.6362 8.76933 42.5213 9.65444 42.5213 10.7415C42.5213 11.8328 41.6362 12.7179 40.5513 12.7179C39.4664 12.7179 38.5813 11.8307 38.5813 10.7415ZM42.8543 53.2671C41.5825 53.2671 40.5513 52.2294 40.5513 50.9619C40.5513 49.6923 41.5803 48.6568 42.8543 48.6568C44.1218 48.6568 45.1573 49.688 45.1573 50.9619C45.1551 52.2273 44.1218 53.2671 42.8543 53.2671ZM43.8382 41.6469C43.1121 41.6469 42.5234 41.0583 42.5234 40.3257C42.5234 39.6039 43.1121 39.0174 43.8382 39.0174C44.5686 39.0174 45.1573 39.6039 45.1573 40.3257C45.1551 41.0561 44.5665 41.6469 43.8382 41.6469ZM52.8245 34.6327C51.2477 34.6327 49.9738 33.3609 49.9738 31.7798C49.9738 30.2094 51.2455 28.9354 52.8245 28.9354C54.395 28.9354 55.671 30.2072 55.671 31.7798C55.6732 33.3609 54.3971 34.6327 52.8245 34.6327Z" fill="white"/>
</g>
<defs>
<clipPath id="clip0_150_2">
<rect width="64" height="64" fill="white"/>
</clipPath>
</defs>
</svg>

<svg xmlns="http://www.w3.org/2000/svg" width="64" height="64" fill="none" viewBox="0 0 64 64"><g clip-path="url(#a)"><path fill="#fff" d="M32.005.004C14.33.004 0 14.33 0 32.001c0 17.676 14.33 31.997 32.005 31.997 17.672 0 31.997-14.323 31.997-31.997C64.002 14.329 49.677.004 32.005.004M9.208 30.688a1.755 1.755 0 0 1-.001-3.508c.972 0 1.756.789 1.756 1.758 0 .966-.784 1.75-1.755 1.75m9.643 1.753c-.966 0-1.75-.788-1.75-1.755s.784-1.75 1.75-1.75c.971 0 1.758.784 1.758 1.75 0 .967-.787 1.755-1.758 1.755m7.017 16.218a3.51 3.51 0 0 1-3.51-3.508 3.507 3.507 0 0 1 3.51-3.504 3.51 3.51 0 0 1 3.51 3.504 3.51 3.51 0 0 1-3.51 3.508m0-32.873a3.509 3.509 0 1 1 0-7.019 3.514 3.514 0 0 1 3.51 3.515 3.51 3.51 0 0 1-3.51 3.504m25.642 2.189a1.536 1.536 0 0 1 0 3.072 1.537 1.537 0 0 1 0-3.072M33.758 30.688a1.75 1.75 0 0 1-1.753-1.75c0-.97.784-1.758 1.753-1.758a1.754 1.754 0 0 1 0 3.508m4.823-19.946c0-1.09.885-1.973 1.97-1.973a1.974 1.974 0 0 1 0 3.949 1.977 1.977 0 0 1-1.97-1.976m4.273 42.525a2.305 2.305 0 0 1 0-4.61 2.306 2.306 0 0 1 2.303 2.305 2.313 2.313 0 0 1-2.303 2.305m.984-11.62a1.316 1.316 0 0 1-1.315-1.321c0-.722.59-1.309 1.315-1.309.73 0 1.32.587 1.32 1.309a1.32 1.32 0 0 1-1.32 1.32m8.987-7.014a2.847 2.847 0 0 1-2.851-2.853 2.845 2.845 0 0 1 2.85-2.845 2.845 2.845 0 0 1 2.847 2.845 2.844 2.844 0 0 1-2.846 2.853"/></g><defs><clipPath id="a"><path fill="#fff" d="M0 0h64v64H0z"/></clipPath></defs></svg>
